picto/non-smoking-framed.svg

<svg class="color-immutable" width="30" height="30" viewBox="0 0 30 30" fill="none" xmlns="http://www.w3.org/2000/svg"><path d="M29.9999 0H0V29.9999H29.9999V0Z" fill="#2D327D"/><path d="M25.4999 2.99999C26.3249 2.99999 26.9999 3.67499 26.9999 4.49999V25.4999C26.9999 26.3249 26.3249 26.9999 25.4999 26.9999H4.49999C3.67499 26.9999 2.99999 26.3249 2.99999 25.4999V4.49999C2.99999 3.67499 3.67499 2.99999 4.49999 2.99999H25.4999ZM25.4999 2.62499H4.49999C3.46612 2.62499 2.62499 3.46612 2.62499 4.49999V25.4999C2.62499 26.5338 3.46612 27.3749 4.49999 27.3749H25.4999C26.5338 27.3749 27.3749 26.5338 27.3749 25.4999V4.49999C27.3749 3.46612 26.5338 2.62499 25.4999 2.62499Z" fill="white"/><path d="M14.6276 7.08666V7.31166C14.6276 10.3131 17.0639 12.7494 20.0654 12.7494H20.8154V11.6241H20.0654C17.6849 11.6241 15.7529 9.69215 15.7529 7.31166V7.08666H14.6276Z" fill="white"/><path d="M20.8154 9.37415H20.0653C18.9269 9.37415 18.0026 8.45015 18.0026 7.31173V7.08673H16.8776V7.31173C16.8776 9.0713 18.306 10.4991 20.0653 10.4991H20.8154C21.9538 10.4991 22.8778 11.4231 22.8778 12.5618V12.7494H24.0029V12.5618C24.0028 10.8022 22.5749 9.37415 20.8154 9.37415Z" fill="white"/><path d="M22.8776 13.8741H24.0027V16.1241H22.8776V13.8741Z" fill="white"/><path d="M24.0504 22.9732L17.2013 16.1241H21.6027V13.8741H14.9513L6.70834 5.63129L5.64769 6.69186L12.83 13.8741H6.00281V16.1241H15.08L22.9899 24.0341L24.0504 22.9732Z" fill="white"/><path d="M6.70834 5.63129L5.64769 6.69186L22.9899 24.0341L24.0504 22.9732L6.70834 5.63129Z" fill="#EB0000"/></svg>

<svg class="color-immutable" width="30" height="30" viewBox="0 0 30 30" fill="none" xmlns="http://www.w3.org/2000/svg"><path d="M30 0H0v30h30V0Z" fill="#2D327D"/><path d="M25.5 3c.825 0 1.5.675 1.5 1.5v21c0 .825-.675 1.5-1.5 1.5h-21c-.825 0-1.5-.675-1.5-1.5v-21C3 3.675 3.675 3 4.5 3h21Zm0-.375h-21A1.877 1.877 0 0 0 2.625 4.5v21c0 1.034.841 1.875 1.875 1.875h21a1.877 1.877 0 0 0 1.875-1.875v-21A1.877 1.877 0 0 0 25.5 2.625Z" fill="#fff"/><path d="M14.628 7.087v.225a5.44 5.44 0 0 0 5.437 5.437h.75v-1.125h-.75a4.314 4.314 0 0 1-4.312-4.312v-.225h-1.125Z" fill="#fff"/><path d="M20.815 9.374h-.75a2.063 2.063 0 0 1-2.062-2.062v-.225h-1.125v.225a3.189 3.189 0 0 0 3.187 3.187h.75c1.139 0 2.063.924 2.063 2.063v.187h1.125v-.187a3.189 3.189 0 0 0-3.188-3.188ZM22.878 13.874h1.125v2.25h-1.125v-2.25ZM24.05 22.973l-6.849-6.849h4.402v-2.25H14.95L6.708 5.631l-1.06 1.06 7.182 7.183H6.003v2.25h9.077l7.91 7.91 1.06-1.06Z" fill="#fff"/><path d="m6.708 5.631-1.06 1.06L22.99 24.035l1.06-1.06L6.708 5.63Z" fill="#EB0000"/></svg>
